src/assets/icons/star.svg

<?xml version="1.0" encoding="UTF-8" standalone="no"?>
<svg width="50px" height="51px" viewBox="0 0 50 51" version="1.1" xmlns="http://www.w3.org/2000/svg" xmlns:xlink="http://www.w3.org/1999/xlink">
    <!-- Generator: Sketch 40.1 (33804) - http://www.bohemiancoding.com/sketch -->
    <title>scoring_star_full</title>
    <desc>Created with Sketch.</desc>
    <defs>
        <linearGradient x1="50%" y1="0%" x2="50%" y2="119.702199%" id="linearGradient">
            <stop stop-color="#FFD300" offset="0%"></stop>
            <stop stop-color="#FCBB27" offset="100%"></stop>
        </linearGradient>
    </defs>
    <g id="Page-1" stroke="none" stroke-width="1" fill="none" fill-rule="evenodd">
        <g id="images" transform="translate(-108.000000, -701.000000)" fill="url(#linearGradient)">
            <g id="placeholder_1" transform="translate(94.000000, 559.918590)">
                <g id="scoring_star_full" transform="translate(14.000000, 142.000000)">
                    <path d="M37.8950278,29.5668065 L39.0790705,28.6630106 L37.9341871,29.5435353 C37.4044751,29.9509345 37.0897096,30.5748513 37.0897096,31.2508547 C37.0897096,31.4635967 37.1219537,31.6738305 37.1767921,31.8525094 L40.0104046,40.5718699 C40.6019912,42.3910213 39.9546376,44.3835343 38.4043004,45.510236 C37.6446755,46.0595159 36.7376883,46.3501181 35.812474,46.3501181 C34.8855821,46.3501181 33.9792198,46.060046 33.2170482,45.5079686 L25.7847735,40.1063037 C25.4238058,39.8631164 25.0149366,39.7338096 24.5892831,39.7338096 C24.1491496,39.7338096 23.728448,39.8687989 23.397121,40.0982328 L15.9489912,45.5085111 C15.1894937,46.0597301 14.2817047,46.3505892 13.3547837,46.3505892 C12.4279082,46.3505892 11.5205704,46.0597486 10.7604919,45.5081078 C9.21302777,44.3840402 8.56531378,42.3917627 9.15630114,40.5721182 L11.9918181,31.8505679 C12.0531502,31.6408711 12.0836735,31.4408707 12.0836735,31.2475571 C12.0836735,30.5382237 11.7338243,29.8854255 11.1289398,29.4631332 L3.81963386,24.1535375 C2.27063655,23.0270428 1.62557669,21.1453757 2.21687471,19.3286294 C2.8078794,17.5127843 4.49358974,16.3899573 6.41514908,16.3899573 L15.9010754,16.3899573 L15.3883415,16.4702967 C16.6036115,16.0798746 17.2817874,15.571593 17.5052221,14.9931668 L20.3848195,6.07642304 C20.9769498,4.25635986 22.6727988,3 24.5841,3 C26.4971803,3 28.1913966,4.21736579 28.7839063,6.04096742 L31.6325341,14.9185934 C31.8842321,15.5750982 32.5589594,16.0779401 33.780008,16.4703447 L33.2671246,16.3899573 L42.7521086,16.3899573 C44.6737067,16.3899573 46.3598489,17.5127825 46.9510501,19.3292317 C47.5416346,21.1461182 46.8966458,23.027578 45.3473072,24.1537677 L37.8950278,29.5668065 Z"></path>
                </g>
            </g>
        </g>
    </g>
</svg>

<svg width="50" height="51" viewBox="0 0 50 51" xmlns="http://www.w3.org/2000/svg"><defs><linearGradient x1="50%" y1="0%" x2="50%" y2="119.702%" id="linearGradient"><stop stop-color="#FFD300" offset="0%"/><stop stop-color="#FCBB27" offset="100%"/></linearGradient></defs><g id="Page-1" fill="none" fill-rule="evenodd"><g id="images" transform="translate(-108 -701)" fill="url(#linearGradient)"><g id="placeholder_1" transform="translate(94 559.919)"><path d="M37.895 29.567l1.184-.904-1.145.88a2.148 2.148 0 0 0-.757 2.31l2.833 8.719a4.415 4.415 0 0 1-6.793 4.936l-7.432-5.402a2.126 2.126 0 0 0-1.196-.372c-.44 0-.86.135-1.192.364l-7.448 5.41a4.413 4.413 0 0 1-5.189 0 4.415 4.415 0 0 1-1.604-4.936l2.836-8.721c.061-.21.092-.41.092-.603 0-.71-.35-1.363-.955-1.785l-7.31-5.31c-1.548-1.126-2.193-3.008-1.602-4.824.59-1.816 2.277-2.939 4.198-2.939h9.486l-.513.08c1.216-.39 1.894-.898 2.117-1.477l2.88-8.917C20.977 4.256 22.673 3 24.585 3a4.403 4.403 0 0 1 4.199 3.041l2.849 8.878c.251.656.926 1.159 2.147 1.551l-.513-.08h9.485c1.922 0 3.608 1.123 4.2 2.94.59 1.816-.055 3.698-1.605 4.824l-7.452 5.413z" transform="translate(14 142)" id="scoring_star_full"/></g></g></g></svg>
